findly-builder/apps/searchassist/src/assets/images/logos/smart-logo-light.svg

<?xml version="1.0" encoding="UTF-8"?>
<svg width="202px" height="30px" viewBox="0 0 202 30" version="1.1" xmlns="http://www.w3.org/2000/svg" xmlns:xlink="http://www.w3.org/1999/xlink">
    <!-- Generator: Sketch 53.2 (72643) - https://sketchapp.com -->
    <title>smart-logo-light</title>
    <desc>Created with Sketch.</desc>
    <g id="smart-logo-light" stroke="none" stroke-width="1" fill="none" fill-rule="evenodd">
        <g id="SmartAssist_by-Kore.ai_Logo-Copy" transform="translate(2.000000, 2.000000)" fill-rule="nonzero">
            <ellipse id="Oval-Copy-15" fill="#009DAB" cx="12.8462441" cy="13.0798122" rx="12.8462441" ry="13.0798122"></ellipse>
            <path d="M3.96377422,11.678406 L3.96377422,11.678406 C4.27551645,11.6777983 4.57466632,11.8007633 4.79510179,12.0201216 C5.01553726,12.2394799 5.13910606,12.5371679 5.1384954,12.8473868 L5.1384954,12.8473868 C5.1384954,13.4917362 4.61358204,14.0140845 3.9660686,14.0140845 L3.9660686,14.0140845 C3.32214206,14.0090685 2.80279958,13.4881864 2.80281931,12.8473868 L2.80281931,12.8473868 C2.80152831,12.2065798 3.31985001,11.6846748 3.96377422,11.678406 Z" id="Path" fill="#FFFFFF"></path>
            <path d="M21.7206894,11.678406 L21.7206894,11.678406 C22.030908,11.6777983 22.3285958,11.8007632 22.5479538,12.0201213 C22.7673119,12.2394794 22.8902768,12.5371671 22.8896691,12.8473857 L22.8896691,12.8473857 C22.8896691,13.4917344 22.3673213,14.0140823 21.7229726,14.0140823 L21.7229726,14.0140823 C21.41315,14.0146886 21.1158093,13.8920368 20.8965172,13.673173 C20.6772251,13.4543092 20.5539923,13.1572089 20.5539928,12.8473857 L20.5539928,12.8473857 C20.5533865,12.5375632 20.6760383,12.2402224 20.8949021,12.0209303 C21.1137659,11.8016382 21.4108662,11.6784054 21.7206894,11.678406 Z" id="Path" fill="#FFFFFF"></path>
            <path d="M8.64087832,9.80985915 L8.64087832,9.80985915 C9.28648861,9.80985915 9.80985915,10.2981797 9.80985915,10.9005536 L9.80985915,15.2590708 C9.80985915,15.8614447 9.28648861,16.3497653 8.64087832,16.3497653 L8.64087832,16.3497653 C8.33105486,16.3497658 8.03395421,16.2347858 7.81509021,16.0301794 C7.5962262,15.825573 7.47357433,15.5481449 7.47418064,15.2590708 L7.47418064,10.9005536 C7.47357433,10.6114795 7.5962262,10.3340514 7.81509021,10.129445 C8.03395421,9.92483866 8.33105486,9.8098586 8.64087832,9.80985915 L8.64087832,9.80985915 Z" id="Path" fill="#FFFFFF"></path>
            <rect id="Rectangle" fill="#FFFFFF" x="16.3497653" y="9.80985915" width="2.33568075" height="6.5399061" rx="1.16784038"></rect>
            <path d="M12.8473846,6.07276995 L12.8473846,6.07276995 C13.157208,6.07276938 13.4543087,6.19185587 13.6731727,6.40376959 C13.8920367,6.61568331 14.0146886,6.9030196 14.0140823,7.20241776 L14.0140823,18.4900705 C14.0146886,18.7894687 13.8920367,19.0768049 13.6731727,19.2887187 C13.4543087,19.5006324 13.157208,19.6197189 12.8473846,19.6197183 L12.8473846,19.6197183 C12.2017743,19.6197183 11.6784038,19.1139578 11.6784038,18.4900705 L11.6784038,7.20241776 C11.6784038,6.57853051 12.2017743,6.07276995 12.8473846,6.07276995 Z" id="Path" fill="#FFFFFF"></path>
            <path d="M71.9252392,19.6195595 C69.7345718,19.6195595 68.6690141,18.4634537 68.6690141,16.0804601 L68.6690141,7.04395965 L70.80651,6.5399061 L70.80651,10.0275277 L73.4310572,10.0275277 L73.4310572,12.0759155 L70.80651,12.0759155 L70.80651,16.0804601 C70.80651,17.3137826 71.4147924,17.5818962 71.9252392,17.5818962 C72.388895,17.5511951 72.8440719,17.4416928 73.2715426,17.258015 L73.8075117,19.089767 C73.2423413,19.4422065 72.5897015,19.6259013 71.9252392,19.6195595 L71.9252392,19.6195595 Z" id="Path" fill="#FFFFFF"></path>
            <path d="M119.103864,19.6195626 C116.913196,19.6195626 115.849765,18.4634565 115.849765,16.0804623 L115.849765,7.04395977 L117.976627,6.5399061 L117.976627,10.0275285 L120.601174,10.0275285 L120.601174,12.0759168 L117.985134,12.0759168 L117.985134,16.0804623 C117.985134,17.3137851 118.593417,17.5818988 119.103864,17.5818988 C119.56818,17.5510297 120.024029,17.4415388 120.452294,17.2580175 L120.988263,19.08977 C120.422291,19.4421666 119.768986,19.6258412 119.103864,19.6195626 Z" id="Path" fill="#FFFFFF"></path>
            <path d="M135.469484,19.6197183 L135.469484,10.030715 L137.805164,10.030715 L137.805164,19.6197183 L135.469484,19.6197183 Z M137.805164,6.5399061 L135.469484,6.5399061 L135.469484,8.68413761 L137.805164,8.68413761 L137.805164,6.5399061 Z" id="Shape" fill="#FFFFFF"></path>
            <path d="M102.769953,19.6197183 L102.769953,10.030715 L105.105634,10.030715 L105.105634,19.6197183 L102.769953,19.6197183 Z M105.105634,6.5399061 L102.769953,6.5399061 L102.769953,8.68413761 L105.105634,8.68413761 L105.105634,6.5399061 Z" id="Shape" fill="#FFFFFF"></path>
            <path d="M130.325612,19.6197183 C127.814873,19.6197183 126.593897,18.6040732 126.593897,16.515749 C126.593897,14.3221311 128.261991,13.2384839 131.69706,13.2384839 L131.899123,13.2384839 L131.899123,13.0322838 C131.899123,12.5167836 131.626123,11.9047642 130.325612,11.9047642 C129.479435,11.9273513 128.64095,12.0751325 127.836369,12.3434878 L127.219432,10.4569764 C128.211926,10.0546713 129.266582,9.83555892 130.33421,9.80985915 C132.847099,9.80985915 134.068075,10.9944128 134.068075,13.4293287 L134.068075,19.0625394 C133.326461,19.4332608 132.071092,19.6197183 130.325612,19.6197183 Z M131.69706,15.333389 C129.715124,15.333389 128.752101,15.7216593 128.752101,16.515749 C128.752101,16.9764088 129.025101,17.5270069 130.325612,17.5270069 C130.611509,17.5270069 130.873761,17.5270069 131.101619,17.4984898 C131.329478,17.4699728 131.544438,17.4546175 131.729304,17.4239068 L131.899123,17.3953898 L131.899123,15.333389 L131.69706,15.333389 Z" id="Shape" fill="#FFFFFF"></path>
            <rect id="Rectangle" fill="#FFFFFF" x="122.856808" y="17.2840376" width="2.33568075" height="2.33568075"></rect>
            <path d="M34.3219072,19.6181106 C32.9675189,19.6418414 31.621879,19.4026467 30.3638498,18.9145446 L30.9775363,16.6601304 C32.057845,17.015145 33.1846888,17.2188224 34.3241147,17.2650255 L34.3241147,17.2650255 C35.7302957,17.2650255 36.4411125,16.7609462 36.4411125,15.7635127 C36.4411125,15.0213364 35.8649535,14.5172571 34.7258807,14.2619999 C31.9841588,13.9402472 30.657448,12.6768314 30.657448,10.400967 C30.657448,7.80549482 32.1453067,6.53993402 35.2093244,6.53993402 C36.3095913,6.53697625 37.3970721,6.76911292 38.3947549,7.21990482 L37.849501,9.3970984 C37.0037943,9.08009595 36.1068576,8.91159679 35.2004944,8.89945415 C33.7325032,8.89945415 32.9929889,9.40353345 32.9929889,10.400967 C32.9929889,11.1388533 33.6000529,11.6429326 34.7987284,11.9024798 C37.4786401,12.2328126 38.7722383,13.4940834 38.7722383,15.7635127 C38.7832759,18.3568399 37.3241147,19.6181106 34.3219072,19.6181106 Z" id="Path" fill="#FFFFFF"></path>
            <path d="M49.5989077,19.6131212 L49.5989077,13.4558458 C49.5989077,12.2859635 49.0462348,12.0418715 48.5828398,12.0418715 C48.1079156,12.0268848 47.6359868,12.1246785 47.2032832,12.327745 L47.1395133,12.3629294 L47.1395133,19.6197183 L44.8863083,19.6197183 L44.8863083,13.4624429 C44.8863083,12.2925606 44.3336354,12.0484686 43.8702404,12.0484686 C43.593904,12.0484686 43.3430755,12.0484686 43.124132,12.0748569 C42.9051885,12.1012452 42.698999,12.1166384 42.5246945,12.1474248 L42.4269139,12.162818 L42.4269139,19.6131212 L40.1737089,19.6131212 L40.1737089,10.3332276 C40.9113147,9.98578131 42.1548287,9.80985915 43.8702404,9.80985915 C44.7693967,9.80985915 45.4262272,9.97478618 45.8216009,10.2980431 L45.8853709,10.3508198 L45.9533922,10.3068392 C46.4699288,9.9769852 47.3542054,9.80985915 48.5828398,9.80985915 C50.7829032,9.80985915 51.8521127,10.9995327 51.8521127,13.4492487 L51.8521127,19.6065241 L49.5989077,19.6131212 Z" id="Path" fill="#FFFFFF"></path>
            <path d="M56.9906103,19.6197183 C54.476295,19.6197183 53.2535211,18.5938219 53.2535211,16.4847902 C53.2535211,14.2590794 54.9146884,13.1825486 58.3337275,13.1825486 L58.4497728,13.1825486 L58.4497728,13.0614664 C58.4497728,12.5947496 58.1983413,12.0377715 56.9906103,12.0377715 C56.1436781,12.0573347 55.3042851,12.2057216 54.4999339,12.4780704 L53.8380457,10.4703075 C54.8414623,10.057331 55.9094907,9.83358377 56.9906103,9.80985915 C59.5049257,9.80985915 60.7276995,11.0008676 60.7276995,13.4533324 L60.7276995,19.0385238 C60.0056397,19.4259868 58.7484821,19.6197183 56.9906103,19.6197183 Z M58.3358765,15.406058 C56.4490655,15.406058 55.5421928,15.7582971 55.5421928,16.4847902 C55.5421928,17.0879997 56.0321619,17.3940074 57.0013553,17.3940074 C57.2807236,17.3940074 57.5343042,17.3940074 57.7556499,17.3675895 C57.9769956,17.3411716 58.1854474,17.3235596 58.3638133,17.2949402 L58.4605178,17.2773282 L58.4605178,15.406058 L58.3358765,15.406058 Z" id="Shape" fill="#FFFFFF"></path>
            <path d="M62.5962441,19.6197183 L62.5962441,10.3335798 C63.3394949,9.9858997 64.5925258,9.80985915 66.3210659,9.80985915 C66.7959877,9.82035354 67.2690672,9.8741099 67.7347418,9.97049615 L67.2292456,12.1710029 C66.9327535,12.0885526 66.6280369,12.0412998 66.3210659,12.0301705 C66.0426146,12.0301705 65.7898665,12.0301705 65.5692474,12.0565766 C65.3486282,12.0829826 65.1408607,12.0983862 64.9652222,12.1291933 L64.8666933,12.1445968 L64.8666933,19.6197183 L62.5962441,19.6197183 Z" id="Path" fill="#FFFFFF"></path>
            <path d="M89.7210597,19.6197183 C88.4494858,19.6186096 87.1832499,19.4499707 85.9530516,19.1178902 L86.5245435,16.9895227 C87.5677575,17.275296 88.643968,17.4122967 89.7231921,17.3967078 C90.6827867,17.3967078 91.1711138,17.1479948 91.1711138,16.6549707 C91.1711138,16.2389816 90.689184,15.9682585 89.6954705,15.8273945 C87.330603,15.6469124 86.1854868,14.6498592 86.1854868,12.7768078 C86.1854868,10.7805004 87.3412651,9.80985915 89.7231921,9.80985915 C90.7943589,9.84001246 91.8575762,10.0093559 92.8877218,10.3138883 L92.3204948,12.4400547 C91.4763453,12.1815663 90.6015191,12.0452711 89.7210597,12.0350706 C88.8680867,12.0350706 88.4416003,12.2837837 88.4416003,12.7746068 C88.4416003,13.1839929 88.8680867,13.454716 89.742384,13.604384 C92.2245354,13.791469 93.4272272,14.7885222 93.4272272,16.6527697 C93.4293597,18.6490771 92.2160056,19.6197183 89.7210597,19.6197183 Z" id="Path" fill="#FFFFFF"></path>
            <path d="M97.6623743,19.6197183 C96.3908004,19.6186096 95.1245645,19.4499707 93.8943662,19.1178902 L94.4679905,16.9895227 C95.5111381,17.2756505 96.5873961,17.4126571 97.6666391,17.3967078 C98.6283661,17.3967078 99.1145607,17.1479948 99.1145607,16.6549707 C99.1145607,16.2389816 98.632631,15.9682585 97.6389175,15.8273945 C95.27405,15.6469124 94.1289338,14.6498592 94.1289338,12.7768078 C94.1289338,10.7805004 95.2868446,9.80985915 97.6666391,9.80985915 C98.7370899,9.84019674 99.7995796,10.0095384 100.829036,10.3138883 L100.261809,12.4400547 C99.4176599,12.1815663 98.5428337,12.0452711 97.6623743,12.0350706 C96.8094013,12.0350706 96.3829148,12.2837837 96.3829148,12.7746068 C96.3829148,13.1839929 96.8094013,13.454716 97.6836986,13.604384 C100.16585,13.791469 101.368542,14.7885222 101.368542,16.6527697 C101.370674,18.6490771 100.15732,19.6197183 97.6623743,19.6197183 Z" id="Path" fill="#FFFFFF"></path>
            <path d="M110.27505,19.6197183 C109.003466,19.6187778 107.737209,19.4501362 106.507042,19.1178902 L107.078534,16.9895227 C108.121718,17.2754594 109.19795,17.4124628 110.277183,17.3967078 C111.236777,17.3967078 111.725104,17.1479948 111.725104,16.6549707 C111.725104,16.2389816 111.243175,15.9682585 110.249461,15.8273945 C107.884594,15.6469124 106.739477,14.6498592 106.739477,12.7768078 C106.739477,10.7805004 107.895256,9.80985915 110.277183,9.80985915 C111.347648,9.84003338 112.410157,10.0093782 113.43958,10.3138883 L112.874485,12.4400547 C112.030336,12.1815663 111.15551,12.0452711 110.27505,12.0350706 C109.422077,12.0350706 108.995591,12.2837837 108.995591,12.7746068 C108.995591,13.1839929 109.422077,13.454716 110.296375,13.604384 C112.778526,13.791469 113.981218,14.7885222 113.981218,16.6527697 C113.98335,18.6490771 112.769996,19.6197183 110.27505,19.6197183 Z" id="Path" fill="#FFFFFF"></path>
            <path d="M82.966442,19.6197183 L82.1779205,16.9201308 L78.0476706,16.9201308 L77.2591492,19.6197183 L74.741784,19.6197183 L78.8319754,6.5399061 L81.3851824,6.5399061 L85.4859155,19.6197183 L82.966442,19.6197183 Z M78.7033663,14.6493897 L81.5243333,14.6493897 L80.1180665,9.87633033 L78.7033663,14.6493897 Z" id="Shape" fill="#FFFFFF"></path>
            <path d="M162.556608,15.0654611 C162.561549,15.9141106 162.053249,16.6902314 161.249301,17.0615813 C160.445354,17.4329312 159.488272,17.3336824 158.787763,16.8063214 L158.787763,17.1889281 L157.892019,17.1889281 L157.892019,10.7441315 L158.787763,10.7441315 L158.787763,13.3267264 C159.488973,12.7969865 160.448387,12.6966088 161.254317,13.0686656 C162.060246,13.4407225 162.569411,14.2190683 162.563326,15.0697123 L162.556608,15.0654611 Z M161.678779,15.0654611 C161.685962,14.6740457 161.528705,14.2960152 161.241733,14.0148485 C160.954761,13.7336818 160.561681,13.572508 160.149295,13.5669184 C159.600011,13.5577358 159.084865,13.8191118 158.787763,14.2577359 L158.787763,15.8774375 C159.089649,16.3141078 159.605825,16.5739185 160.156013,16.5661294 C161.009453,16.5430075 161.686444,15.8758404 161.678779,15.0654611 L161.678779,15.0654611 Z" id="Shape" fill="#FFFFFF"></path>
            <polygon id="Path" fill="#FFFFFF" points="164.749649 19.1525822 163.843628 19.1525822 164.769345 17.102793 162.56338 12.6126761 163.489098 12.6126761 165.207037 16.1210519 166.795857 12.6126761 167.701878 12.6126761"></polygon>
            <polygon id="Path" fill="#FFFFFF" points="171.855209 15.6642466 171.855209 17.2795381 170.971831 17.2795381 170.971831 10.75538 171.855209 10.75538 171.855209 14.4044091 175.198959 10.7441315 176.269918 10.7441315 173.635052 13.684502 176.577465 17.2840376 175.449794 17.2840376 173.019959 14.3661641"></polygon>
            <path d="M181.2487,14.924305 C181.258519,15.8714514 180.695248,16.7307287 179.822757,17.0995984 C178.950267,17.4684682 177.941368,17.2738694 177.268693,16.6069641 C176.596017,15.9400587 176.392799,14.9329391 176.754239,14.0574021 C177.115678,13.1818651 177.970186,12.6113261 178.917458,12.6130606 C179.5357,12.6017353 180.132234,12.8409526 180.571332,13.2762842 C181.01043,13.7116159 181.254749,14.3060385 181.2487,14.924305 L181.2487,14.924305 Z M180.368155,14.924305 C180.328427,14.1226822 179.652295,13.5015209 178.850119,13.5296869 C178.047942,13.5578528 177.41705,14.2249062 177.433652,15.0273411 C177.450254,15.8297759 178.108198,16.4701674 178.910854,16.4651346 C179.312831,16.4656917 179.697351,16.3009415 179.974213,16.0095312 C180.251075,15.7181208 180.395916,15.3256935 180.374759,14.924305 L180.368155,14.924305 Z" id="Shape" fill="#FFFFFF"></path>
            <path d="M182.983437,13.393376 C183.365254,12.8888078 183.928603,12.6024552 184.518779,12.612955 L184.518779,13.4620347 C183.906766,13.463216 183.333729,13.7989109 182.983437,14.3614641 L182.983437,17.2840376 L182.183099,17.2840376 L182.183099,12.7205204 L182.983437,12.7205204 L182.983437,13.393376 Z" id="Path" fill="#FFFFFF"></path>
            <path d="M189.640656,15.1769468 L186.251996,15.1769468 C186.29773,15.9576087 186.925118,16.5557055 187.662726,16.5218132 C188.150975,16.5218132 188.493789,16.3149107 188.672467,15.9759427 L189.551316,15.9759427 C189.312386,16.7573299 188.566507,17.2833906 187.635716,17.2833906 C187.049677,17.2982447 186.483727,17.0567683 186.070988,16.6157613 C185.65825,16.1747542 185.435153,15.5731421 185.454176,14.9524355 C185.454176,13.6185745 186.341336,12.6126761 187.617017,12.6126761 C188.807515,12.6126761 189.648966,13.5525418 189.657277,14.9040115 C189.657142,14.9952691 189.651591,15.0864274 189.640656,15.1769468 L189.640656,15.1769468 Z M186.270695,14.6332773 L188.832447,14.6332773 C188.761807,13.8518901 188.308877,13.3456393 187.617017,13.3456393 C186.846206,13.3456393 186.3725,13.9091185 186.270695,14.6332773 Z" id="Shape" fill="#FFFFFF"></path>
            <path d="M190.591549,16.8169014 C190.591549,16.5589092 190.800693,16.3497653 191.058685,16.3497653 C191.316678,16.3497653 191.525822,16.5589092 191.525822,16.8169014 C191.525822,17.0748936 191.316678,17.2840376 191.058685,17.2840376 C190.800693,17.2840376 190.591549,17.0748936 190.591549,16.8169014 L190.591549,16.8169014 Z" id="Path" fill="#FFFFFF"></path>
            <path d="M196.664319,12.7261468 L196.664319,17.1700249 L195.787427,17.1700249 L195.787427,16.7800155 C195.365583,17.1150107 194.840241,17.2930682 194.301397,17.2836848 C193.279555,17.2705402 192.38462,16.596157 192.091433,15.6183539 C191.798246,14.6405508 192.174728,13.5858487 193.021121,13.0138586 C193.867515,12.4418685 194.987743,12.4850993 195.787427,13.1206134 L195.787427,12.7261468 L196.664319,12.7261468 Z M195.787427,15.8083351 L195.787427,14.085608 C195.49033,13.6259444 194.973858,13.3553299 194.426348,13.372448 C193.578793,13.4043026 192.908153,14.0998247 192.908153,14.9469715 C192.908153,15.7941183 193.578793,16.4896404 194.426348,16.521495 C194.973858,16.5386131 195.49033,16.2679986 195.787427,15.8083351 L195.787427,15.8083351 Z" id="Shape" fill="#FFFFFF"></path>
            <path d="M198.065973,10.8523282 C198.05961,10.625233 198.177312,10.4165189 198.363551,10.3246493 C198.549791,10.2327796 198.767358,10.2761101 198.913612,10.4341991 C199.059866,10.5922881 199.105585,10.833549 199.029201,11.0441644 C198.952818,11.2547798 198.769593,11.3926682 198.565964,11.3927791 C198.434663,11.3981225 198.307089,11.3434785 198.21272,11.2414735 C198.118352,11.1394685 198.065354,10.9989286 198.065973,10.8523282 L198.065973,10.8523282 Z M198.950723,12.4715017 L198.950723,16.8169014 L198.190971,16.8169014 L198.190971,12.4715017 L198.950723,12.4715017 Z" id="Shape" fill="#FFFFFF"></path>
            <rect id="Rectangle" fill="#FFFFFF" x="147.615023" y="2.8028169" width="1" height="20.0868545"></rect>
        </g>
    </g>
</svg>

<svg width="202" height="30" xmlns="http://www.w3.org/2000/svg"><g transform="translate(2 2)" fill="none"><ellipse fill="#009DAB" cx="12.846" cy="13.08" rx="12.846" ry="13.08"/><path d="M3.964 11.678c.312 0 .61.123.831.342a1.17 1.17 0 0 1-.829 1.994 1.17 1.17 0 0 1-1.163-1.167 1.17 1.17 0 0 1 1.16-1.169Zm17.756 0a1.167 1.167 0 0 1 1.17 1.17c0 .644-.523 1.166-1.167 1.166a1.167 1.167 0 0 1-1.169-1.167 1.167 1.167 0 0 1 1.167-1.169ZM8.64 9.81c.646 0 1.17.488 1.17 1.09v4.36c0 .601-.524 1.09-1.17 1.09a1.21 1.21 0 0 1-.825-.32 1.053 1.053 0 0 1-.34-.77V10.9a1.047 1.047 0 0 1 .34-.77 1.21 1.21 0 0 1 .826-.32Z" fill="#FFF"/><rect fill="#FFF" x="16.35" y="9.81" width="2.336" height="6.54" rx="1.168"/><path d="M12.847 6.073c.31 0 .607.119.826.33.219.213.342.5.341.8V18.49c0 .3-.122.587-.34.799a1.188 1.188 0 0 1-.827.33c-.645 0-1.169-.505-1.169-1.129V7.202c0-.623.524-1.13 1.17-1.13ZM71.925 19.62c-2.19 0-3.256-1.157-3.256-3.54V7.044l2.138-.504v3.488h2.624v2.048h-2.624v4.004c0 1.234.608 1.502 1.118 1.502.464-.03.92-.14 1.347-.324l.536 1.832a3.494 3.494 0 0 1-1.883.53Zm47.179 0c-2.19 0-3.254-1.157-3.254-3.54V7.044l2.127-.504v3.488h2.624v2.048h-2.616v4.004c0 1.234.608 1.502 1.119 1.502.464-.031.92-.14 1.348-.324l.536 1.832a3.502 3.502 0 0 1-1.884.53Zm16.366 0v-9.59h2.335v9.59h-2.336Zm2.335-13.08h-2.336v2.144h2.336V6.54ZM102.77 19.62v-9.59h2.336v9.59h-2.336Zm2.336-13.08h-2.336v2.144h2.336V6.54Zm25.22 13.08c-2.511 0-3.732-1.016-3.732-3.104 0-2.194 1.668-3.278 5.103-3.278h.202v-.206c0-.515-.273-1.127-1.573-1.127a8.59 8.59 0 0 0-2.49.438l-.617-1.886a8.857 8.857 0 0 1 3.115-.647c2.513 0 3.734 1.184 3.734 3.62v5.633c-.742.37-1.997.557-3.742.557Zm1.371-4.287c-1.982 0-2.945.389-2.945 1.183 0 .46.273 1.011 1.574 1.011.286 0 .548 0 .776-.029.227-.028.442-.043.627-.074l.17-.029v-2.062h-.202Zm-8.84 1.951h2.336v2.336h-2.336zm-88.535 2.334c-1.354.024-2.7-.215-3.958-.703l.614-2.255a12.32 12.32 0 0 0 3.346.605c1.406 0 2.117-.504 2.117-1.501 0-.743-.576-1.247-1.715-1.502-2.742-.322-4.069-1.585-4.069-3.861 0-2.596 1.488-3.861 4.552-3.861a7.69 7.69 0 0 1 3.186.68l-.545 2.177A7.85 7.85 0 0 0 35.2 8.9c-1.467 0-2.207.505-2.207 1.502 0 .738.607 1.242 1.806 1.501 2.68.33 3.973 1.592 3.973 3.862.011 2.593-1.448 3.854-4.45 3.854Zm15.277-.005v-6.157c0-1.17-.553-1.414-1.016-1.414a3.02 3.02 0 0 0-1.38.286l-.063.035v7.257h-2.254v-6.158c0-1.17-.552-1.414-1.016-1.414-.276 0-.527 0-.746.027-.219.026-.425.042-.6.072l-.097.016v7.45h-2.253v-9.28c.737-.347 1.98-.523 3.696-.523.9 0 1.556.165 1.952.488l.063.053.068-.044c.517-.33 1.401-.497 2.63-.497 2.2 0 3.27 1.19 3.27 3.64v6.157l-2.254.006Zm7.391.007c-2.514 0-3.736-1.026-3.736-3.135 0-2.226 1.66-3.302 5.08-3.302h.116v-.122c0-.466-.252-1.023-1.46-1.023a8.367 8.367 0 0 0-2.49.44l-.662-2.008a8.787 8.787 0 0 1 3.153-.66c2.514 0 3.737 1.19 3.737 3.643v5.586c-.722.387-1.98.58-3.737.58Zm1.346-4.214c-1.887 0-2.794.352-2.794 1.079 0 .603.49.909 1.46.909.279 0 .532 0 .754-.026.221-.027.43-.044.608-.073l.097-.018v-1.87h-.125Zm4.26 4.214v-9.286c.743-.348 1.997-.524 3.725-.524.475.01.948.064 1.414.16l-.506 2.201a3.92 3.92 0 0 0-.908-.14c-.278 0-.531 0-.752.026-.22.026-.428.041-.604.072l-.098.016v7.475h-2.27Zm27.125 0a14.503 14.503 0 0 1-3.768-.502l.572-2.128c1.043.285 2.119.422 3.198.407.96 0 1.448-.249 1.448-.742 0-.416-.482-.687-1.476-.828-2.364-.18-3.51-1.177-3.51-3.05 0-1.996 1.156-2.967 3.538-2.967 1.071.03 2.135.2 3.165.504l-.568 2.126a9.241 9.241 0 0 0-2.599-.405c-.853 0-1.28.249-1.28.74 0 .409.427.68 1.301.83 2.483.186 3.685 1.184 3.685 3.048.002 1.996-1.211 2.967-3.706 2.967Zm7.941 0a14.503 14.503 0 0 1-3.768-.502l.574-2.128a11.45 11.45 0 0 0 3.199.407c.961 0 1.448-.249 1.448-.742 0-.416-.482-.687-1.476-.828-2.365-.18-3.51-1.177-3.51-3.05 0-1.996 1.158-2.967 3.538-2.967 1.07.03 2.133.2 3.162.504l-.567 2.126a9.241 9.241 0 0 0-2.6-.405c-.853 0-1.28.249-1.28.74 0 .409.427.68 1.302.83 2.482.186 3.685 1.184 3.685 3.048.002 1.996-1.212 2.967-3.707 2.967Zm12.613 0a14.499 14.499 0 0 1-3.768-.502l.572-2.128c1.043.285 2.119.422 3.198.407.96 0 1.448-.249 1.448-.742 0-.416-.482-.687-1.476-.828-2.364-.18-3.51-1.177-3.51-3.05 0-1.996 1.156-2.967 3.538-2.967 1.07.03 2.133.2 3.163.504l-.566 2.126a9.241 9.241 0 0 0-2.599-.405c-.853 0-1.28.249-1.28.74 0 .409.427.68 1.301.83 2.483.186 3.685 1.184 3.685 3.048.002 1.996-1.211 2.967-3.706 2.967Zm-27.309 0-.788-2.7h-4.13l-.789 2.7h-2.517l4.09-13.08h2.553l4.1 13.08h-2.519Zm-4.263-4.97h2.821l-1.406-4.774-1.415 4.773Zm83.854.415c.005.85-.504 1.625-1.308 1.997a2.426 2.426 0 0 1-2.461-.256v.383h-.896v-6.445h.896v2.583c.701-.53 1.66-.63 2.466-.258.806.372 1.315 1.15 1.31 2l-.007-.004Zm-.878 0a1.433 1.433 0 0 0-.437-1.05 1.593 1.593 0 0 0-1.093-.448 1.61 1.61 0 0 0-1.361.69v1.62c.302.437.818.697 1.368.69.853-.024 1.53-.691 1.523-1.502Zm3.071 4.088h-.906l.925-2.05-2.206-4.49h.926l1.718 3.508 1.589-3.508h.906zm7.105-3.489v1.616h-.883v-6.525h.883v3.65l3.344-3.66h1.07l-2.634 2.94 2.942 3.599h-1.127l-2.43-2.918z" fill="#FFF"/><path d="M181.249 14.924a2.335 2.335 0 1 1-2.332-2.31 2.29 2.29 0 0 1 2.332 2.31Zm-.88 0a1.468 1.468 0 1 0-1.458 1.541 1.464 1.464 0 0 0 1.464-1.54h-.007Zm2.614-1.531c.382-.504.946-.79 1.536-.78v.849c-.612.001-1.185.337-1.536.9v2.922h-.8v-4.563h.8v.672Zm6.657 1.784h-3.388c.046.78.673 1.379 1.41 1.345.489 0 .832-.207 1.01-.546h.88c-.24.781-.985 1.307-1.916 1.307a2.07 2.07 0 0 1-1.565-.667 2.332 2.332 0 0 1-.617-1.664c0-1.333.887-2.34 2.163-2.34 1.19 0 2.032.94 2.04 2.292 0 .091-.005.182-.016.273Zm-3.37-.544h2.562c-.07-.781-.523-1.287-1.215-1.287-.77 0-1.244.563-1.346 1.287Zm4.322 2.184a.467.467 0 1 1 .934 0 .467.467 0 0 1-.934 0Zm6.072-4.091v4.444h-.877v-.39a2.325 2.325 0 0 1-1.486.504 2.334 2.334 0 0 1-1.28-4.27 2.34 2.34 0 0 1 2.766.107v-.395h.877Zm-.877 3.082v-1.722a1.562 1.562 0 0 0-1.36-.714 1.576 1.576 0 0 0 0 3.15 1.562 1.562 0 0 0 1.36-.714Zm2.279-4.956a.566.566 0 0 1 .298-.527.462.462 0 0 1 .55.11.603.603 0 0 1 .115.61.503.503 0 0 1-.463.348.456.456 0 0 1-.353-.152.57.57 0 0 1-.147-.389Zm.885 1.62v4.345h-.76v-4.345h.76Zm-51.336-9.669h1V22.89h-1z" fill="#FFF"/></g></svg>
